X:94
T: Die dienende Schwester
N: Q0075w
O: Mitteleuropa, Deutschland (BRD) , Rheinland
R: Ballade, Adelige als Dienstmagd, Tod; Kinder - Spiel, Tanz
M: 3/4
L: 1/16
K: F
c2c2c2 | f4e2e2e2d2 | f4z2
B2B2Ad | d4c2c2B2c2 | A4z2
c2c2c2 | f4e2e2e2d2 | f4z2
B2B2Ad | d4c2c2B2c2 | A4z2
F2F2A2 | c4B2A2c2c2 | G4z2
G2BBGG | d4c2c2B2c2 | A4z2

@@@ Tune index: 1149
